svgs/thin/sliders-up.svg

<svg xmlns="http://www.w3.org/2000/svg" viewBox="0 0 512 512"><!--! Font Awesome Pro 6.4.2 by @fontawesome - https://fontawesome.com License - https://fontawesome.com/license (Commercial License) Copyright 2023 Fonticons, Inc. --><path d="M96 0c4.4 0 8 3.6 8 8V96.5c31.6 3.9 56 30.9 56 63.5s-24.4 59.6-56 63.5V504c0 4.4-3.6 8-8 8s-8-3.6-8-8V223.5c-31.6-3.9-56-30.9-56-63.5s24.4-59.6 56-63.5V8c0-4.4 3.6-8 8-8zm0 208a48 48 0 1 0 0-96 48 48 0 1 0 0 96zM256 400a48 48 0 1 0 0-96 48 48 0 1 0 0 96zm64-48c0 32.6-24.4 59.6-56 63.5V504c0 4.4-3.6 8-8 8s-8-3.6-8-8V415.5c-31.6-3.9-56-30.9-56-63.5s24.4-59.6 56-63.5V8c0-4.4 3.6-8 8-8s8 3.6 8 8V288.5c31.6 3.9 56 30.9 56 63.5zM464 192a48 48 0 1 0 -96 0 48 48 0 1 0 96 0zm-40 63.5V504c0 4.4-3.6 8-8 8s-8-3.6-8-8V255.5c-31.6-3.9-56-30.9-56-63.5s24.4-59.6 56-63.5V8c0-4.4 3.6-8 8-8s8 3.6 8 8V128.5c31.6 3.9 56 30.9 56 63.5s-24.4 59.6-56 63.5z"/></svg>

<svg xmlns="http://www.w3.org/2000/svg" viewBox="0 0 512 512"><!--! Font Awesome Pro 6.1.1 by @fontawesome - https://fontawesome.com License - https://fontawesome.com/license (Commercial License) Copyright 2022 Fonticons, Inc. --><path d="M96 0C100.4 0 104 3.582 104 8V96.5C135.6 100.4 160 127.4 160 160C160 192.6 135.6 219.6 104 223.5V504C104 508.4 100.4 512 96 512C91.58 512 88 508.4 88 504V223.5C56.43 219.6 32 192.6 32 160C32 127.4 56.43 100.4 88 96.5V8C88 3.582 91.58 0 96 0zM96 208C122.5 208 144 186.5 144 160C144 133.5 122.5 112 96 112C69.49 112 48 133.5 48 160C48 186.5 69.49 208 96 208zM320 352C320 384.6 295.6 411.6 264 415.5V504C264 508.4 260.4 512 256 512C251.6 512 248 508.4 248 504V415.5C216.4 411.6 192 384.6 192 352C192 319.4 216.4 292.4 248 288.5V8C248 3.582 251.6 0 256 0C260.4 0 264 3.582 264 8V288.5C295.6 292.4 320 319.4 320 352zM256 400C282.5 400 304 378.5 304 352C304 325.5 282.5 304 256 304C229.5 304 208 325.5 208 352C208 378.5 229.5 400 256 400zM424 504C424 508.4 420.4 512 416 512C411.6 512 408 508.4 408 504V255.5C376.4 251.6 352 224.6 352 192C352 159.4 376.4 132.4 408 128.5V8C408 3.582 411.6 0 416 0C420.4 0 424 3.582 424 8V128.5C455.6 132.4 480 159.4 480 192C480 224.6 455.6 251.6 424 255.5V504zM416 144C389.5 144 368 165.5 368 192C368 218.5 389.5 240 416 240C442.5 240 464 218.5 464 192C464 165.5 442.5 144 416 144z"/></svg>
